!!!!SEGMENT: pl-wumfc--n48032_joteyko-tadeusz--wiosna-op-2-no-1-juz-okwitl-wonny-bez.krn
!!!cenid: 19xx:117
!!!COM: Joteyko, Tadeusz
!!!COM-rismID: pe50046072
!!!CDT: 1872-1932
!!!CNT: Polish
!!!OTL: Wiosna Op. 2 No. 1/Już okwitł wonny bez
!!!PDT:
!!!AGN: Secular; Song
!!!YEC: Copyright 2022 Narodowy Instytut Fryderyka Chopina (https://polishscores.org)
!!!YEM: License CC-BY-4.0 (https://creativecommons.org/licenses/by/4.0)
!!!SMS-siglum: PL-Wumfc
!!!SMS-shelfmark: N48032
!!!SMS-variant:
!!!SMS-altvar:
!!!SMS-shelfwork: W
!!!NIFC-rismSourceID: 1001177920
!!!NIFC-rismChildID: 1001177920
!!!NIFC-islandoraID: pl-wumfc:8043
!!!URL-pdf-islandora: https://repozytorium.nifc.pl/islandora/object/pl-wumfc%3A8043/datastream/PDF/view
!!!URL-scan: https://polish.musicsources.pl/pl/lokalizacje/galeria/druki-muzyczne/12518/2 @EN{Scan on Polish Music Sources Website} @PL{Skany w portalu Dziedzictwo Muzyki Polskiej w otwartym dostępie}
!!!IIIF:
!!!ONB-nifc:
!!!OMD: Allegro animato.
!!!AIN: 1 piano 1 vox
!!!key: A-
**kern	**kern	**dynam	**kern	**text	**text	**dynam
*part2	*part2	*part2	*part1	*part1	*part1	*part1
*staff3	*staff2	*	*staff1	*staff1	*staff1	*
*ICklav	*ICklav	*	*ICvox	*	*	*
*Ipiano	*Ipiano	*	*Ivox	*	*	*
*I"Fortepian.	*I"Fortepian.	*	*I"Śpiew	*	*	*
*clefF4	*clefG2	*	*clefG2	*	*	*
*k[b-e-a-d-]	*k[b-e-a-d-]	*	*k[b-e-a-d-]	*	*	*
*A-:	*A-:	*	*A-:	*	*	*
*M12/8	*M12/8	*	*M12/8	*	*	*
*>[A,B,B,C]	*>[A,B,B,C]	*	*>[A,B,B,C]	*	*	*
=1	=1	=1	=1	=1	=1	=1
*>A	*>A	*	*>A	*	*	*
!	!LO:TX:a:B:t=Allegro animato.	!	!	!	!	!
8E-\L 8A- 8c	8e-/L 8a- 8cc	p <	1.r	.	.	.
8E-\ 8A- 8c	8e-/ 8a- 8cc	.	.	.	.	.
8E-\J 8A- 8c	8e-/J 8a- 8cc	.	.	.	.	.
8En\L 8A- 8c	8en/L 8a- 8cc	.	.	.	.	.
8E\ 8A- 8c	8e/ 8a- 8cc	.	.	.	.	.
8E\J 8A- 8c	8e/J 8a- 8cc	.	.	.	.	.
8F\L 8A- 8c	8f/L 8a- 8cc	.	.	.	.	.
8F\ 8A- 8c	8f/ 8a- 8cc	.	.	.	.	.
8F\J 8A- 8c	8f/J 8a- 8cc	.	.	.	.	.
8F\L 8A- 8c	8f/L 8a- 8cc	.	.	.	.	.
8F\ 8A- 8c	8f/ 8a- 8cc	.	.	.	.	.
8F\J 8A- 8c	8f/J 8a- 8cc	[	.	.	.	.
=2!|:	=2!|:	=2!|:	=2!|:	=2!|:	=2!|:	=2!|:
*>B	*>B	*	*>B	*	*	*
8F\L 8A- 8d-	4a-/	<	1.r	.	.	.
8F\ 8A- 8d-	.	.	.	.	.	.
8F\J 8A- 8d-	8r	.	.	.	.	.
8F\L 8A- 8d-	(>4.aa-\	.	.	.	.	.
8F\ 8A- 8d-	.	.	.	.	.	.
8F\J 8A- 8d-	.	.	.	.	.	.
!	!LO:TUP:a	!	!	!	!	!
8F\L 8B- 8d-	(<16%3aa-\L)	[	.	.	.	.
8F\ 8B- 8d-	.	.	.	.	.	.
.	16%3ff\J	.	.	.	.	.
8F\J 8B- 8d-	.	.	.	.	.	.
!	!LO:TUP:a	!	!	!	!	!
8F\L 8B- 8d-	16%3dd-\L	.	.	.	.	.
8F\ 8B- 8d-	.	.	.	.	.	.
.	16%3b-\J)	.	.	.	.	.
8F\J 8B- 8d-	.	.	.	.	.	.
!!LO:LB:g=original
=3	=3	=3	=3	=3	=3	=3
8E-\L 8A- 8c	8e-/L 8a- 8cc 8ee-	.	2.r	.	.	.
8E-\ 8A- 8c	8e-/ 8a- 8cc 8ee-	.	.	.	.	.
8E-\J 8A- 8c	8e-/ 8a- 8cc 8ee-	>	.	.	.	.
8E-\L 8A- 8c	8e-/ 8a- 8cc 8ee-	.	.	.	.	.
8E-\ 8A- 8c	8e-/ 8a- 8cc 8ee-	.	.	.	.	.
8E-\J 8A- 8c	8e-/J 8a- 8cc 8ee-	.	.	.	.	.
8E-\L 8G 8c	8e-/L 8a- 8cc 8ee-	.	4r	.	.	.
8E-\ 8G 8c	8e-/ 8a- 8cc 8ee-	.	.	.	.	.
8E-\J 8G 8c	8e-/J 8a- 8cc 8ee-	.	8r	.	.	.
8E-\L 8G 8d-	8e-/L 8a- 8cc 8ee-	.	8e-/	Już	O-	.
8E-\ 8G 8d-	8e-/ 8a- 8cc 8ee-	.	8dn/	o-	-czę-	.
8E-\J 8G 8d-	8e-/J 8a- 8cc 8ee-	]	8e-/	-kwitł	-ta	.
=4	=4	=4	=4	=4	=4	=4
8E-\L 8A- 8c	8e-/L 8a- 8cc	p	[4.cc\	won-	jas-	.
8E-\ 8A- 8c	8e-/ 8a- 8cc	.	.	.	.	.
8E-\J 8A- 8c	8e-/J 8a- 8cc	.	.	.	.	.
8En\L 8A- 8c	8en/L 8a- 8cc	.	4cc\]	.	.	.
8E\ 8A- 8c	8e/ 8a- 8cc	.	.	.	.	.
8E\J 8A- 8c	8e/J 8a- 8cc	.	8b-\	-ny	-ne	.
8F\L 8A- 8c	8f/L 8a- 8cc	.	4.a-/	bez,	zwróć	.
8F\ 8A- 8c	8f/ 8a- 8cc	.	.	.	.	.
8F\J 8A- 8c	8f/J 8a- 8cc	.	.	.	.	.
!	!	!	!	!	!	!LO:HP:a
8F\L 8A- 8c	8f/L 8a- 8cc	.	8f/	już	na	<
8F\ 8A- 8c	8f/ 8a- 8cc	<	8en/	gną	buj-	.
8F\J 8A- 8c	8f/J 8a- 8cc	.	8f/	się	-ne	.
=5	=5	=5	=5	=5	=5	=5
8F\L 8An 8d-	8f/L 8an 8dd-	.	[4.dd-\	list-	fa-	.
8F\ 8A 8d-	8f/ 8a 8dd-	.	.	.	.	.
8F\J 8A 8d-	8f/J 8a 8dd-	.	.	.	.	.
((4.FF^/ 4.F	8f/L 8a 8dd-	.	4dd-\]	.	.	[
.	8f/ 8a 8dd-	[	.	.	.	.
.	8e-/J 8a 8cc	.	8cc\	-ki	-le	.
4.BB-\)) 4.B-	8d-/L 8f 8b-	.	4.b-\	róz	zbóż,	.
.	8d-/ 8f 8b-	.	.	.	.	.
.	8d-/J 8f 8b-	.	.	.	.	.
8r	8d-/L 8f 8b-	.	8b-\	jutrz-	do	.
4r	8d-/ 8f 8b-	.	8an/	-nia-	spół-	.
.	8d-/J 8f 8b-	.	8b-\	-nych	-ki	.
!!LO:LB:g=original
=6	=6	=6	=6	=6	=6	=6
!	!	!	!	!	!	!LO:DY:a:rj
8EE-/L 8E-	8d-/L 8g 8b-	f	[4.ff\	peł-	z lu-	f
8FF/ 8F	8d-/ 8g 8b-	.	.	.	.	.
8GG/J 8G	8d-/J 8g 8b-	.	.	.	.	.
4D-\ 4d-	8f/L 8g 8b-	.	4ff\]	.	.	.
.	8f/ 8g 8b-	.	.	.	.	.
8C\ 8c	8f/J 8an 8cc	.	8ee-\	-ne	-dem	.
4.BB-\ 4.B-	8f/L 8b- 8dd-	.	4dd-\	łez,	nuć	.
!	!LO:TX:b:i:t=poco rit.	!	!	!	!	!
.	8f/ 8b- 8dd-	.	.	.	.	.
!	!	!	!LO:TX:a:i:t=poco rit.	!	!	!
.	8f/J 8b- 8dd-	.	8r	.	.	.
4.AA-X\ 4.A-X	8f/L 8b- 8dd-	.	8f/	dzie-	już	.
.	8f/ 8b- 8dd-	.	8g/	-we-	wio-	.
.	8f/J 8b- 8dd-	.	8a-/	-czko	-sna,	.
=7	=7	=7	=7	=7	=7	=7
!	!	!	!	!	!	!LO:HP:a
4GG/ 4G	8e-/L 8b- 8dd-	>	[4.b-\	wio-	wio-	>
.	8e-/ 8b- 8dd-	.	.	.	.	.
8FF/ 8F	8f/J 8b- 8dd-	.	.	.	.	.
4.EE-/ 4.E-	8g/L 8b- 8dd-	.	4b-\]	.	.	.
.	8g/ 8b- 8dd-	.	.	.	.	.
.	8d-:/J 8g: 8cc:	.	8cc\	-sna	-sna	.
[4.AA-\ [4.A-	8c/L 8e- 8a-	]	4a-/	już!	już!	]
.	8c/ 8e- 8a-	.	.	.	.	.
.	8c/J 8e- 8a-	.	8r	.	.	.
!	!	!	!	!	!	!LO:DY:a
4AA-\] 4A-]	4c/ 4e- 4a-	p	8a-/	Dzie-	Dłoń	p
.	.	.	8b-\	-we-	w dłoń	.
8r	8r	.	8a-/	-czko	u	.
=8||	=8||	=8||	=8||	=8||	=8||	=8||
*M9/8	*M9/8	*	*M9/8	*	*	*
!	!LO:TX:b:B:t=Più tranquillo.	!	!	!	!	!
!	!LO:TX:a:i:t=dolce	!	!LO:TX:a:B:t=Più tranquillo.	!	!	!
(8FF/L	(4a-\ 4cc	pp	4cc\	dłoń	skro-	.
8C/	.	.	.	.	.	.
8F/J)	8b-\ 8dd-	.	8dd-\	mi	-ni	.
(8FF/L	4a-\ 4cc	.	(4cc\	daj,	skroń,	.
8C/	.	.	.	.	.	.
8F/J)	8g/) 8b-	.	8b-\)	.	.	.
(8FF/L	(8f/L 8a-	.	8a-/	szcze-	o	.
8C/	8g/ 8b-	.	8b-\	-bio-	wio-	.
8F/J)	8f/J) 8a-	.	8a-/	-tem	-śnie	.
!!LO:PB:g=original
=9	=9	=9	=9	=9	=9	=9
(8FF/L	4g/ 4b-	.	4b-\	pta-	śpiew-	.
8C/	.	.	.	.	.	.
8F/J)	8a-/ 8cc	.	8cc\	-szkom	-kę	.
(8FF/L	((4g/ 4b-	.	(4b-\	w tórz,	kończ,	.
8C/	.	.	.	.	.	.
8F/J)	8f/)) 8a-	.	8a-/)	.	.	.
(8FF/L	(8f/L 8a-	.	8a-/	na	twa-	.
8C/	8en/ 8g	.	8g/	dwo-	-rzy-	.
8F/J)	8f/J) 8a-	.	8a-/	-rze	-czkę	.
=10	=10	=10	=10	=10	=10	=10
*	*^	*	*	*	*	*
4BBBn/ 4BBn	(4ddn^/	8r	.	4ddn\	pa-	ku	.
.	.	8f\L 8a-	.	.	.	.	.
8CC/ 8C	8cc/	8f\J 8a-	.	8cc\	-chnie	mnie	.
[4.DDn/ [4.Dn	4bn/)	8r	.	4bn\	maj,	skłoń,	.
.	.	8f\L 8a-	.	.	.	.	.
.	8ryy	8f\J 8a-	.	8r	.	.	.
!	!	!	!	!	!	!	!LO:HP:a
4DD/] 4D]	(8f/L 8a-	4ryy	<	8a-/	w o-	z u-	<
.	8g/ 8b-X	.	.	8b-X\	-gród-	-sta-	.
8r	8a-/J) 8cc	8ryy	[	8cc\	-ku	-mi	[
=11	=11	=11	=11	=11	=11	=11	=11
(>4.GGG/ 4.GG	(4ee-/	8r	.	4ee-\	wio-	u-	.
.	.	8f\L 8bn	.	.	.	.	.
!	!LO:SIC:v:o=8dd-/	!	!	!	!	!	!
.	8ddn/	8f\J 8b	.	8ddn\	-sna	-sta	.
4.AAA-/ 4.AA-	2.cc/)	8r	<	2.cc\	już,	złącz,	.
.	.	8e-\L 8a-	.	.	.	.	.
.	.	8e-\J 8a-	.	.	.	.	.
4.AAAn/) 4.AAn	.	8e-\L 8g-X	.	.	.	.	.
.	.	8e-\ 8g-	.	.	.	.	.
.	.	8e-\J 8g-	[[	.	.	.	.
!!LO:LB:g=original
=12	=12	=12	=12	=12	=12	=12	=12
!	!	!	!	!	!	!	!LO:HP:a
2.BBB-/ 2.BB-	2.cc^/	8r	sf	2.cc\	wio-	us-	>
.	.	8dn\L 8f	.	.	.	.	.
.	.	8d\J 8f	.	.	.	.	.
.	.	8d\L 8f	.	.	.	.	.
.	.	8d\ 8f	.	.	.	.	.
.	.	8d\J 8f	>	.	.	.	.
4.BBB-/ 4.BB-	4.b-/	8r	.	4.b-\	-sna	-ta	.
.	.	8d\L 8f	.	.	.	.	.
.	.	8d\J 8f	]]	.	.	.	]]
*	*v	*v	*	*	*	*	*
=13	=13	=13	=13	=13	=13	=13
!	!	!	!	!	!	!LO:DY:a:rj
2.EE-;</ 2.E-	2.d-X;/ 2.e- 2.g 2.b-	p	2.b-;\	już!	złącz!	p
4r	4r	.	8e-/	We	I	.
.	.	.	8dn/	wło-	my-	.
8r	8r	.	8e-/	-sy	-śli	.
=14||	=14||	=14||	=14||	=14||	=14||	=14||
*M12/8	*M12/8	*	*M12/8	*	*	*
!LO:TX:b:i:t=marcato il basso	!LO:TX:b:B:t=Tempo I.	!	!LO:TX:a:B:t=Tempo I.	!	!	!
(8E-\L	8e-/L 8a- 8cc	.	[4.cc\	kwia-	na-	.
8Dn\	8e-/ 8a- 8cc	.	.	.	.	.
8E-\J	8e-/J 8a- 8cc	.	.	.	.	.
4c\	8en/L 8a- 8cc	.	4cc\]	.	.	.
.	8e/ 8a- 8cc	.	.	.	.	.
8G\	8e/J 8b- 8cc	.	8b-\	-tek	-sze	.
4F\	8f/L 8a- 8cc	<	4.a-/	rzuć,	splącz,	.
.	8f/ 8a- 8cc	.	.	.	.	.
8C/	8f/J 8a- 8cc	.	.	.	.	.
4FF/)	8f/L 8a- 8cc	.	8f/	su-	w błę-	.
.	8f/ 8a- 8cc	.	8en/	-kien-	-ki-	.
8r	8f/J 8a- 8cc	[	8f/	-kę	-tną	.
!!LO:LB:g=original
=15	=15	=15	=15	=15	=15	=15
!LO:TX:b:i:t=sempre e marcato	!	!	!	!	!	!LO:HP:a
(8F\L	8f/L 8an 8dd-	.	[4.dd-\	bia-	pieśń	<
8En\	8f/ 8a 8dd-	<	.	.	.	.
8F\J	8f/J 8a 8dd-	.	.	.	.	.
4d-\	8f/L 8a 8dd-	.	4dd-\]	.	.	.
.	8f/ 8a 8dd-	.	.	.	.	.
8An\	8e-/J 8f 8cc	.	8cc\	-łą	bez	.
4B-\	8d-/L 8f 8b-	.	4.b-\	włóż,	słów,	.
.	8d-/ 8f 8b-	.	.	.	.	.
8F\	8d-/J 8f 8b-	.	.	.	.	.
4BBB-/ 4BB-	8f/L 8b- 8dd-	.	8b-\	do	do	.
.	8f/ 8b- 8dd-	.	8an/	spół-	spół-	.
8AAA-X/) 8AA-X	8f/J 8b- 8dd-	[[	8b-\	-ki	-ki	[
=16	=16	=16	=16	=16	=16	=16
!	!	!	!LO:TX:a:i:t=allargando	!	!	!LO:DY:a:rj
(<[4.GGG/ [4.GG	8g\L 8bn 8ddn 8gg	ff	[4.gg\	z ptasz-	z ptasz-	ff
!	!LO:TX:b:i:t=allargando	!	!	!	!	!
.	8g\ 8b 8dd 8gg	.	.	.	.	.
.	8g\J 8b 8dd 8gg	.	.	.	.	.
4GGG/] 4GG]	8g\L 8b 8dd 8gg	.	4gg\]	.	.	.
.	8g\ 8b 8dd 8gg	.	.	.	.	.
8BBBn/ 8BBn	8g\J 8dd 8ff	.	8ff\	-kiem	-kiem	.
4.CC/ 4.C	8g\L 8cc 8ee-	.	4.ee-\	nuć	kończ	.
.	8g\ 8cc 8ee-	.	.	.	.	.
.	8g\J 8cc 8ee-	.	.	.	.	.
4.DD-X/ 4.D-X	8f\L 8b-X 8ee-	.	8ee-\	już	znów	.
.	8f\ 8b- 8dd-X	.	8dd-X\	wio-	wio-	.
.	8d-\J 8f	.	8f/	-sna,	-sna,	.
=17	=17	=17	=17	=17	=17	=17
!	!LO:TX:b:i:t=molto rit.	!	!LO:TX:a:i:t=molto rit.	!	!	!
((2.EE-/) 2.E-	8e-/L 8a- 8cc 8ee-	.	[4.cc\	wio-	wio-	.
.	8e-/ 8a- 8cc 8ee-	.	.	.	.	.
.	8e-/J 8a- 8cc 8ee-	.	.	.	.	.
.	8e-/L 8a- 8cc 8ee-	.	4cc\]	.	.	.
.	8e-/ 8a- 8cc 8ee-	.	.	.	.	.
.	8d-:/J 8g: 8b-: 8ee-:	.	8b-\	-sna	-sna	.
!	!LO:TX:b:i:t=a tempo	!	!LO:TX:a:i:t=a tempo	!	!	!
8AAA-\L)) 8AA-	[4.a-/	>	[4.a-/	już!	znów!	.
8E-\ 8A- 8c	.	.	.	.	.	.
8E-\J 8A- 8c	.	.	.	.	.	.
8En\L 8A- 8c	4a-/]	.	4a-/]	.	.	.
8E\ 8A- 8c	.	]	.	.	.	.
8E\J 8A- 8c	8r	.	8r	.	.	.
!!LO:LB:g=original
=18:|!	=18:|!	=18:|!	=18:|!	=18:|!	=18:|!	=18:|!
*>C	*>C	*	*>C	*	*	*
8F\L 8A- 8d-	4a-/	<	1.r	.	.	.
8F\ 8A- 8d-	.	.	.	.	.	.
8F\J 8A- 8d-	8r	.	.	.	.	.
8F\L 8A- 8d-	[>4.aa-^\	.	.	.	.	.
8F\ 8A- 8d-	.	.	.	.	.	.
8F\J 8A- 8d-	.	.	.	.	.	.
!	!LO:TUP:a	!	!	!	!	!
8F\L 8B- 8d-	16%3aa-\L]	[	.	.	.	.
8F\ 8B- 8d-	.	.	.	.	.	.
.	16%3ff\J	.	.	.	.	.
8F\J 8B- 8d-	.	.	.	.	.	.
!	!LO:TUP:a	!	!	!	!	!
8F\L 8B- 8d-	16%3dd-\L	.	.	.	.	.
8F\ 8B- 8d-	.	.	.	.	.	.
.	16%3b-\J	.	.	.	.	.
8F\J 8B- 8d-	.	.	.	.	.	.
=19	=19	=19	=19	=19	=19	=19
!	!	!LO:HP:t=cresc._:ext=ud	!	!	!	!
8E-\L 8A- 8c	8e-/L 8a- 8cc 8ee-	<	1.r	.	.	.
8E-\ 8A- 8c	8e-/ 8a- 8cc 8ee-	.	.	.	.	.
8E-\J 8A- 8c	8e-/J 8a- 8cc 8ee-	.	.	.	.	.
8E-\L 8A- 8c	8e-/L 8a- 8cc 8ee-	.	.	.	.	.
8E-\ 8A- 8c	8e-/ 8a- 8cc 8ee-	.	.	.	.	.
8E-\J 8A- 8c	8e-/J 8a- 8cc 8ee-	.	.	.	.	.
8E-\L 8G 8c	8e-/L 8a- 8cc 8ee-	.	.	.	.	.
8E-\ 8G 8c	8e-/ 8a- 8cc 8ee-	.	.	.	.	.
8E-\J 8G 8c	8e-/J 8a- 8cc 8ee-	.	.	.	.	.
8E-\L 8G 8d-	8e-/L 8g 8b- 8ee-	.	.	.	.	.
8E-\ 8G 8d-	8e-/ 8g 8b- 8ee-	.	.	.	.	.
8E-\J 8G 8d-	8e-/J 8g 8b- 8ee-	[	.	.	.	.
=20	=20	=20	=20	=20	=20	=20
[4.AAA-^/ [4.AA-	[4.a-^\ [4.cc [4.ee- [4.aa-	ff	1.r	.	.	.
4AAA-/] 4AA-]	4a-\] 4cc] 4ee-] 4aa-]	.	.	.	.	.
8r	8r	.	.	.	.	.
2.r	2.r	.	.	.	.	.
==	==	==	==	==	==	==
*-	*-	*-	*-	*-	*-	*-
!!!system-decoration: s1{(s2,s3)}
!!!RDF**kern: < = below
!!!RDF**kern: > = above
!!!RDF**kern: N = linked
!!!ENC: Anastazja Marusiak
!!!END: 2023-10-18
!!!EED: Marta Chmielewska
!!!EEV: 2023-11-24
